!!!!SEGMENT: pl-kk--kk-i-38--011_lasso-orlando-di--legem-pone-mihi-domine.krn
!!!cenid: 16xx:1261
!!!COM: Lasso, Orlando di
!!!COM-rismid: pe506
!!!CDT: ~1532-1594/06/14
!!!CNT: French-Flemish
!!!OTL: Legem pone mihi Domine
!!!PDT:
!!!AGN: Sacred
!!!SMS-siglum: PL-Kk
!!!SMS-shelfmark: Kk.I.38
!!!SMS-shelfwork: 011 W
!!!SMS-variant:
!!!SMS-altvar:
!!!NIFC-rismid: 1001154397
!!!URL-scan: http://repozytorium.nifc.pl/skany/pl-kk-nut--i-38
!!!ONB-nifc: Lib. 2. Fol. 31. 2da parte (jeśli występuje), należy do utworu tytułowego
!!!AIN: 1 empty
!!!key:
**kern	**text
*Iempty	*
*I"Baſso Ripieno.	*
*I'B rip	*
*clefF3	*
*k[b-]	*
*F:	*
*M2/1	*
*met(C|)	*
=1-	=1-
!LO:TX:a:t=Lib. 2. Fol. 31.	!
00r	.
=2-	=2-
.	.
=3-	=3-
!LO:TX:t=P:problem=kreska pseudotaktowa	!
00r	.
=4-	=4-
.	.
=5-	=5-
0F	Le-
=6-	=6-
!LO:TX:t=P:problem=kreska pseudotaktowa	!
1D	-gem
1D	po-
=7-	=7-
!LO:TX:t=P:problem=kreska pseudotaktowa	!
1G	-ne
1E-	mi-
=8-	=8-
!LO:TX:t=P:problem=kreska pseudotaktowa	!
1C	-hi
*2\right	*
(2.G\	Do-
4A\)	.
=9-	=9-
2B-\	-mi-
2B-\	-ne
!LO:TX:t=P:problem=kreska pseudotaktowa	!
1F,<	.
=10-	=10-
1r	.
0B-	Le-
=11-	=11-
.	.
!LO:TX:t=P:problem=kreska pseudotaktowa	!
1G	-gem
=12-	=12-
2.c\	po-
4B-\	.
4A\	.
4G\	.
4F/	.
!LO:TX:t=P:problem=kreska pseudotaktowa	!
4Eny/	.
=13-	=13-
2D/	.
2D/	-ne
2.F\	mi-
4G\	-hi
=14-	=14-
2A\	Do-
2F\	.
2B-\	-mi-
2G\	.
=15-	=15-
!LO:TX:t=P:problem=kreska pseudotaktowa	!
0F	-ne
!LO:LB:g=original	!
=16-	=16-
!LO:TX:t=P:problem=przy kluczu BB- B-	!
00r	.
=17-	=17-
.	.
=18-	=18-
!LO:TX:t=P:problem=kreska pseudotaktowa	!
0r	.
=19-	=19-
1c	Vi-
2c\	-am
2A\	Ju-
=20-	=20-
2A\	-sti-
!LO:TX:t=P:problem=kreska pseudotaktowa	!
2B-\	-fi-
2c\	-ca-
2d\	-ti-
=21-	=21-
1c	-o-
!LO:TX:t=P:problem=kreska pseudotaktowa	!
1F	-num
=22-	=22-
1r	.
2r	.
1c\	Vi-
=23-	=23-
.	.
2c\	-am
1A	Ju-
=24-	=24-
2G\	-sti-
!LO:TX:t=P:problem=kreska pseudotaktowa	!
2F\	-fi-
2C/	-ca-
2C/	-ti-
=25-	=25-
2F\	-o-
2D/	-num
2G\	tu-
2F\	-a-
=26-	=26-
!LO:TX:t=P:problem=kreska pseudotaktowa	!
1BB-	-rum
1r	.
=27-	=27-
2r	.
2G\	Ju-
2.c\	-sti-
4c\	-fi-
=28-	=28-
2B-\	-ca-
!LO:TX:t=P:problem=kreska pseudotaktowa	!
2G\	-ti-
1B-	-o-
=29-	=29-
2.F\	.
*custos:A	*
!LO:TX:t=P:problem=kreska pseudotaktowa	!
4G\	.
!LO:LB:g=original	!
2A,<\	-num
2E/	Tu-
=30-	=30-
1F	-a-
!LO:TX:t=P:problem=kreska pseudotaktowa	!
1C	-rum
=31-	=31-
2r	.
1F	et
2F\	ex-
=32-	=32-
2A\	-qui-
2A\	-ram
1B-	e-
=33-	=33-
!LO:TX:t=P:problem=kreska pseudotaktowa	!
1F	-am
1c	sem-
=34-	=34-
!LO:TX:t=P:problem=kreska pseudotaktowa	!
1C	-per
1r	.
=35-	=35-
1.F	et
2F\	ex-
=36-	=36-
2A\	-qui-
2A\	-ram
1c	e-
=37-	=37-
!LO:TX:t=P:problem=kreska pseudotaktowa	!
1G	-a(m)
1F	sem-
=38-	=38-
2C,</	-per
*	*ij
1C	et
2C/	ex-
=39-	=39-
2D/	-qui-
!LO:TX:t=P:problem=kreska pseudotaktowa	!
2D/	-ram
2.F/	e-
8E/L	.
8D/J	.
=40-	=40-
2C/	-am
!LO:TX:t=P:problem=kreska pseudotaktowa	!
2c\	sem-
0B-	.
=41-	=41-
.	.
!LO:TX:t=P:problem=kreska pseudotaktowa	!
1F	-per
*	*Xij
!LO:LB:g=original	!
=42-	=42-
!LO:TX:t=P:problem=kreska pseudotaktowa	!
1r	.
1.F	et
=43-	=43-
.	.
2F\	ex-
2A\	-qui-
!LO:TX:t=P:problem=kreska pseudotaktowa	!
2A\	-ram
=44-	=44-
1B-	e-
1BB-	-am
=45-	=45-
0F	sem-
=46-	=46-
0Cl;	-per
=47||	=47||
*k[b-]	*
*M2/1	*
*met(C|)	*
!LO:TX:a:B:t=2da parte	!
00r	.
=48-	=48-
.	.
=49-	=49-
00r	.
=50-	=50-
.	.
=51-	=51-
!LO:TX:t=P:problem=kreska pseudotaktowa	!
0r	.
=52-	=52-
0F	Da
=53-	=53-
2.A\	mi-
!LO:TX:t=P:problem=kreska pseudotaktowa	!
4G\	.
4F/	.
4E/	.
2D/	.
=54-	=54-
2C,</	-hi
!LO:TX:t=P:problem=kreska pseudotaktowa	!
2C/	in-
!LO:LB:g=original	!
2F\	-tel-
2.F\	-le-
=55-	=55-
.	.
4G\	.
4A\	.
!LO:TX:t=P:problem=kreska pseudotaktowa	!
4B-\	.
2.c\	.
8B-\L	.
8A\J	.
=56-	=56-
4G\	.
4A\	.
2B-\	.
!LO:TX:t=P:problem=kreska pseudotaktowa	!
1F	-ctum
=57-	=57-
00r	.
=58-	=58-
.	.
=59-	=59-
2r	.
1A	et
2F\	scru-
=60-	=60-
1B-	-ta-
2G\	-bor
1c\	le-
=61-	=61-
.	.
!LO:TX:t=P:problem=kreska pseudotaktowa	!
2G\	-gem
1c	tu-
=62-	=62-
!LO:TX:t=P:problem=kreska pseudotaktowa	!
1F	-am
2r	.
2B-\	et
=63-	=63-
2G\	scru-
2.c\	-ta-
4B-\	.
4A\	.
!LO:TX:t=P:problem=kreska pseudotaktowa	!
4G\	.
=64-	=64-
2.F/	.
4E/	.
2D/	.
!LO:TX:t=P:problem=kreska pseudotaktowa	!
2D/	-bor
=65-	=65-
2.G\	le-
4F\	.
2E-X/	-gem
*custos:G	*
!LO:TX:t=P:problem=kreska pseudotaktowa	!
2C/	.
!LO:LB:g=original	!
=66-	=66-
1G	tu-
!LO:TX:t=P:problem=kreska pseudotaktowa	!
1C,<	-am
=67-	=67-
1F	et
2F\	cus-
2.B-\	-to-
=68-	=68-
.	.
4B-\	-di-
!LO:TX:t=P:problem=kreska pseudotaktowa	!
2G\	-am
1c	il-
=69-	=69-
!LO:TX:t=P:problem=kreska pseudotaktowa	!
1F	-lam
2r	.
2C/	et
=70-	=70-
2C/	cus-
2.F\	-to-
4F\	-di-
!LO:TX:t=P:problem=kreska pseudotaktowa	!
2D/	-am
=71-	=71-
1G	il-
*lig	*
1D	-lam
=72-	=72-
!LO:TX:t=P:problem=kreska pseudotaktowa	!
1C	.
*Xlig	*
!LO:TX:t=P:problem=kreska pseudotaktowa	!
!LO:TX:a:t=1.	!
1r	.
=73-	=73-
1G	in
2A\	to-
2c\	-to
=74-	=74-
2B-\	cor-
2A\	-de
1G	me-
=75-	=75-
!LO:TX:t=P:problem=kreska pseudotaktowa	!
1F	-o
!LO:TX:t=P:problem=kreska pseudotaktowa	!
0r	.
=76-	=76-
.	.
1D	in
=77-	=77-
2Eny/	to-
!LO:TX:t=P:problem=kreska pseudotaktowa	!
2G\	-to
!LO:LB:g=original	!
2F/	cor-
2E/	-de
=78-	=78-
!LO:TX:t=P:problem=kreska pseudotaktowa	!
1D	me-
2C/	-o
!LO:TX:t=P:problem=w źródle błędne pauzy [powinna być 4r]	!
!LO:N:vis=2	!
8r	.
!LO:N:vis=4	!
8r	.
!LO:TX:t=P:problem=kreska pseudotaktowa	!
4G\	in
=79-	=79-
2A\	to-
2c\	-to
1G	cor-
=80-	=80-
!LO:TX:t=P:problem=kreska pseudotaktowa	!
1C,<	-de
2F/	me-
!LO:TX:t=P:problem=kreska pseudotaktowa	!
2C/	-o
=81-	=81-
1r	.
2r	.
!LO:TX:t=P:problem=kreska pseudotaktowa	!
2G\	in
=82-	=82-
2A\	to-
2c\	-to
2B-\	cor-
!LO:TX:t=P:problem=kreska pseudotaktowa	!
2A\	-de
=83-	=83-
1G	me-
2F,<\	-o
2C/	in
=84-	=84-
2D/	to-
2F/	-to
*lig	*
1C	cor-
=85-	=85-
1F	.
*Xlig	*
2.BB-/	-de
4C/	.
=86-	=86-
4D/	.
4E/	.
!LO:TX:t=P:problem=kreska pseudotaktowa	!
2F/	.
1BB-	me-
=87-	=87-
0Fl;	-o.
==	==
*-	*-
!!!RDF**kern: < = below
!!!RDF**kern: l = terminal long
!!!ENC: Andrzej Kubiczek
!!!END: 2021-07-29
!!!ENC: Anastazja Marusiak
!!!END: 2021-07-01
